!!!COM: Music21
!!!OTL: Carballeira Adiante
!!!OMV: pezas_pasacorredoiras_carballeira-adiante_carballeira-adiante-partitura.musicxml
**kern
*I"Bagpipes
*I'Bag
*clefG^2
*k[]
*M2/4
=1
!LO:TX:a:t=Andante
*MM96
!LO:TX:a:t=[quarter]=96
4.r
8gg
=||
8cccL
16bbL
16aaJJ
8ggL
8ggJ
=
8cccL
16bbL
16aaJJ
16ggLL
16cc
16dd
16eeJJ
=
8ffL
8ggJ
8aaL
8bbJ
=
16aaLL
16ccc
16bb
16aaJJ
8ggL
8ggJ
=
8cccL
16bbL
16aaJJ
8ggL
8ggJ
=
8cccL
16bbL
16aaJJ
16ggLL
16cc
16dd
16eeJJ
!!linebreak:original
=
8ffL
8ggJ
8aaL
8ggJ
=
4.ccc
8gg
=||
8cccL
16bbL
16aaJJ
8ggL
8ggJ
=
8cccL
16bbL
16aaJJ
16ggLL
16cc
16dd
16eeJJ
=
8ffL
8ggJ
8aaL
8bbJ
=
16aaLL
16ccc
16bb
16aaJJ
8ggL
8ggJ
=
8cccL
16bbL
16aaJJ
8ggL
8ggJ
!!linebreak:original
=
8cccL
16bbL
16aaJJ
16ggLL
16cc
16dd
16eeJJ
!!linebreak:original
=
8ffL
8ggJ
8aaL
8ggJ
=
4ccc
16cccLL
16bb
16ccc
16ggJJ
=||
8aaL
8aaJ
16cccLL
16bb
16ccc
16aaJJ
=
8ggL
8ggJ
16eeLL
16ff
16gg
16aaJJ
=
8ggL
16ffL
16eeJJ
16ddLL
16ee
16ff
16ggJJ
=
8aaL
16ggL
16eeJJ
16cccLL
16bb
16ccc
16ggJJ
!!linebreak:original
=
8aaL
8aaJ
16cccLL
16bb
16ccc
16aaJJ
=
8ggL
8ggJ
16eeLL
16ff
16gg
16aaJJ
=
8ggL
16ffL
16eeJJ
16ffLL
16aa
16gg
16ffJJ
=
4ee
16cccLL
16bb
16ccc
16ggJJ
=||
8aaL
8aaJ
16cccLL
16bb
16ccc
16aaJJ
=
8ggL
8ggJ
16eeLL
16ff
16gg
16aaJJ
!!linebreak:original
=
8ggL
16ffL
16eeJJ
16ddLL
16ee
16ff
16ggJJ
=
8aaL
16ggL
16eeJJ
16cccLL
16bb
16ccc
16ggJJ
!!linebreak:original
=
8aaL
8aaJ
16cccLL
16bb
16ccc
16aaJJ
=
8ggL
8ggJ
16eeLL
16ff
16gg
16aaJJ
=
8ggL
16ffL
16eeJJ
16ffLL
16aa
16gg
16ffJJ
=
4.ee
8gg
=||
8cccL
16bbL
16aaJJ
8ggL
8ggJ
=
8cccL
16bbL
16aaJJ
16ggLL
16cc
16dd
16eeJJ
!!linebreak:original
=
8ffL
8ggJ
8aaL
8bbJ
=
16aaLL
16ccc
16bb
16aaJJ
8ggL
8ggJ
=
8cccL
16bbL
16aaJJ
8ggL
8ggJ
=
8cccL
16bbL
16aaJJ
16ggLL
16cc
16dd
16eeJJ
=
8ffL
8ggJ
8aaL
8ggJ
=
4.ccc
8gg
=||
8cccL
16bbL
16aaJJ
8ggL
8ggJ
!!linebreak:original
=
8cccL
16bbL
16aaJJ
16ggLL
16cc
16dd
16eeJJ
!!linebreak:original
=
8ffL
8ggJ
8aaL
8bbJ
=
16aaLL
16ccc
16bb
16aaJJ
8ggL
8ggJ
=
8cccL
16bbL
16aaJJ
8ggL
8ggJ
=
8cccL
16bbL
16aaJJ
16ggLL
16cc
16dd
16eeJJ
=
8ffL
8ggJ
8aaL
8ggJ
=
*k[b-]
*F:
4.ccc
16cccLL
16bb-JJ
!!pagebreak:original
=||
8aaL
8aaJ
16aaLL
16ccc
16bb-
16aaJJ
=
8ggL
8ggJ
8ggL
16eeL
16ffJJ
=
8ggL
8aaJ
8bb-L
8ggJ
=
16aaLL
16gg
16aa
16bb-JJ
8cccL
16aaL
16bb-JJ
=
16cccLL
16bb-
16aa
16ggJJ
16aaLL
16ccc
16bb-
16aaJJ
=
16bb-LL
16ccc
16bb-
16aaJJ
8ggL
16ggL
16aaJJ
!!linebreak:original
=
16bb-LL
16aa
16gg
16ffJJ
16ggLL
16bb-
16aa
16ggJJ
=
16aaLL
16gg
16aa
16bb-JJ
8cccL
16cccL
16bb-JJ
!!linebreak:original
=||
8aaL
8aaJ
16aaLL
16ccc
16bb-
16aaJJ
=
8ggL
8ggJ
8ggL
16eeL
16ffJJ
=
8ggL
8aaJ
8bb-L
8ggJ
=
16aaLL
16gg
16aa
16bb-JJ
8cccL
16aaL
16bb-JJ
=
16cccLL
16bb-
16aa
16ggJJ
16aaLL
16ccc
16bb-
16aaJJ
=
16bb-LL
16ccc
16bb-
16aaJJ
16bb-LL
16gg
16aa
16bb-JJ
!!linebreak:original
=
16aaLL
16ccc
16bb-
16aaJJ
16ggLL
16bb-
16aa
16ggJJ
=
16ffLL
16gg
16aa
16ggJJ
8ffL
8ggJ
!!linebreak:original
=||
*k[]
*C:
8ccc
32ccLLL
32dd
32ee
32ffJJJ
8gg
32aaLLL
32gg
32ff
32eeJJJ
=
8ff
32ddLLL
32ee
32ff
32ggJJJ
8aa
32bbLLL
32aa
32gg
32ffJJJ
=
8gg
32ccLLL
32dd
32ee
32ffJJJ
8gg
32aaLLL
32gg
32ff
32eeJJJ
=
4aa
[4aa
=
4aa]
[4gg
=
4gg]
16ggLL
16aa
16bb
16ggJJ
!!linebreak:original
=
[2ccc
=
8ccc]
8r
4r
==
*-
